X:1
T:Melbourne, LM
T:Melbourne, LM
T:Hugh Henry McGranahan, 1897
T:Public Domain Courtesy of the Cyber Hymnal™
C:Hugh Henry McGranahan, 1897
Z:Public Domain
Z:Courtesy of the Cyber Hymnal™
%%score 1 ( 2 3 )
L:1/8
Q:1/4=85
M:3/4
K:Eb
V:1 treble 
V:2 bass 
V:3 bass 
V:1
 [EG][EG] [EG] | [DA]3 [FA] [DF]>[B,F] | [B,E]3 [GB] [GB][GB] | [Ac]3 [Ac] [=Ad]>[Ac] | %4
 [AB]3 [AB] [AB][AB] | [Ge]3 [GB] [FA][EG] | [Ec]3 [Fc] !fermata![Ad][Ad] | [Ge]3 [Ac] [GB][AB] | %8
 [GB]3 |] %9
V:2
 [E,B,][E,B,] [E,B,] | [F,B,]3 [B,,B,] [B,,B,]>[B,,B,] | [E,G,]3 [E,E] [E,E][E,E] | %3
 [A,E]3 [A,E] [F,C]>[F,C] | [B,D]3 [B,D] [B,D][B,D] | [E,B,]3 [E,B,] [F,B,][G,B,] | %6
 A,3 [=A,E] !fermata![B,D][=B,F] | [CE]3 [A,E] [B,E][B,D] | [E,E]3 |] %9
V:3
 x3 | x6 | x6 | x6 | x6 | x6 | =A,3 x3 | x6 | x3 |] %9

